images/favicon.svg

<svg width="60" height="60" viewBox="0 0 60 60" fill="none" xmlns="http://www.w3.org/2000/svg">
<circle cx="30" cy="30" r="30" fill="white"/>
<path d="M34.8346 40.4853C33.9844 40.4853 33.5592 39.9855 33.5592 38.9859V22.6648C33.5592 20.9528 33.8407 19.7522 34.4037 19.0628C34.9782 18.3619 35.9721 18.0115 37.3853 18.0115H48.6739C49.7195 18.0115 50.2423 18.4308 50.2423 19.2696C50.2423 20.1198 49.7195 20.545 48.6739 20.545H37.6266C37.0291 20.545 36.6212 20.6598 36.4029 20.8896C36.1961 21.1079 36.0927 21.5331 36.0927 22.165V38.9859C36.0927 39.9855 35.6733 40.4853 34.8346 40.4853Z" fill="#56BCEC"/>
<path d="M9.86173 40.8703C9.05745 40.5485 8.81616 39.9913 9.13788 39.1985L17.4622 18.9996C17.7494 18.3332 18.2205 18 18.8754 18H18.9616C19.6165 18.0345 20.0646 18.3677 20.3059 18.9996L28.7163 39.1985C29.038 39.9913 28.8082 40.5485 28.0269 40.8703C27.2342 41.1805 26.6826 40.9507 26.3724 40.1809L24.356 35.3552H13.4465L11.499 40.1809C11.1773 40.9622 10.6315 41.192 9.86173 40.8703ZM14.4461 32.8217H23.3219L18.8237 22.0157L14.4461 32.8217Z" fill="#282828"/>
</svg>

<svg width="60" height="60" fill="none" xmlns="http://www.w3.org/2000/svg"><circle cx="30" cy="30" r="30" fill="#fff"/><path d="M34.835 40.485c-.85 0-1.276-.5-1.276-1.5v-16.32c0-1.712.282-2.913.845-3.602.574-.701 1.568-1.051 2.981-1.051h11.289c1.045 0 1.568.419 1.568 1.258 0 .85-.523 1.275-1.568 1.275H37.627c-.598 0-1.006.115-1.224.345-.207.218-.31.643-.31 1.275v16.82c0 1-.42 1.5-1.258 1.5Z" fill="#56BCEC"/><path d="M9.862 40.87c-.805-.322-1.046-.879-.724-1.671l8.324-20.2c.287-.666.759-.999 1.413-.999h.087c.654.035 1.103.368 1.344 1l8.41 20.199c.322.792.092 1.35-.69 1.671-.792.31-1.343.08-1.654-.69l-2.016-4.825h-10.91L11.5 40.181c-.322.781-.867 1.011-1.637.69Zm4.584-8.048h8.876l-4.498-10.806-4.378 10.806Z" fill="#282828"/></svg>
